packages/icons/src/components/Icon/assets/small-outline/settings.svg

<svg width="16" height="16" viewBox="0 0 16 16" fill="none" xmlns="http://www.w3.org/2000/svg">
<path fill-rule="evenodd" clip-rule="evenodd" d="M5.65659 2.21097C5.77305 1.51217 6.37765 1 7.08609 1H8.91447C9.62291 1 10.2275 1.51217 10.344 2.21097L10.4945 3.11393C10.5004 3.14959 10.5314 3.21193 10.6189 3.26037C10.6785 3.29331 10.7373 3.32733 10.7954 3.36242C10.8809 3.41406 10.9504 3.40982 10.9843 3.39711L11.842 3.07578C12.5054 2.82725 13.2513 3.09476 13.6055 3.70828L14.5197 5.29171C14.8739 5.90523 14.7327 6.68492 14.1857 7.13518L13.4778 7.71797C13.4498 7.74104 13.4116 7.7989 13.4134 7.898C13.414 7.93193 13.4143 7.96593 13.4143 8C13.4143 8.03406 13.414 8.06806 13.4134 8.10199C13.4116 8.2011 13.4498 8.25896 13.4778 8.28202L14.1857 8.86481C14.7327 9.31507 14.8739 10.0948 14.5197 10.7083L13.6055 12.2917C13.2513 12.9052 12.5054 13.1727 11.842 12.9242L10.9843 12.6029C10.9504 12.5902 10.8809 12.5859 10.7954 12.6376C10.7373 12.6727 10.6785 12.7067 10.6189 12.7396C10.5314 12.7881 10.5004 12.8504 10.4945 12.8861L10.344 13.789C10.2275 14.4878 9.6229 15 8.91447 15H7.08609C6.37765 15 5.77305 14.4878 5.65659 13.789L5.50609 12.8861C5.50015 12.8504 5.46911 12.7881 5.38161 12.7396C5.3221 12.7067 5.26328 12.6727 5.20518 12.6376C5.11966 12.5859 5.05016 12.5902 5.01626 12.6029L4.15853 12.9242C3.49512 13.1728 2.74927 12.9052 2.39505 12.2917L1.48086 10.7083C1.12664 10.0948 1.2679 9.31508 1.81484 8.86482L2.52277 8.28203C2.55079 8.25897 2.589 8.20111 2.58716 8.102C2.58653 8.06807 2.58622 8.03407 2.58622 8C2.58622 7.96594 2.58653 7.93194 2.58716 7.89801C2.58899 7.79891 2.55079 7.74105 2.52277 7.71798L1.81484 7.13519C1.2679 6.68493 1.12664 5.90524 1.48086 5.29172L2.39505 3.70829C2.74927 3.09477 3.49512 2.82726 4.15853 3.07579L5.01624 3.39712C5.05015 3.40982 5.11965 3.41406 5.20517 3.36242C5.26327 3.32734 5.32209 3.29331 5.38161 3.26037C5.46911 3.21193 5.50015 3.1496 5.50609 3.11393L5.65659 2.21097ZM7.08609 2.3125C7.01925 2.3125 6.96221 2.36082 6.95123 2.42674L6.80073 3.3297C6.71879 3.82134 6.39744 4.19823 6.01725 4.40868C5.97218 4.43362 5.92764 4.45939 5.88362 4.48597C5.51093 4.71102 5.02313 4.80128 4.55579 4.6262L3.69808 4.30487C3.63549 4.28143 3.56513 4.30666 3.53171 4.36454L2.61752 5.94797C2.5841 6.00585 2.59743 6.0794 2.64903 6.12188L3.35695 6.70467C3.74129 7.02107 3.90749 7.4874 3.89943 7.92231C3.89896 7.94814 3.89872 7.97404 3.89872 8C3.89872 8.02596 3.89896 8.05186 3.89943 8.0777C3.90749 8.51261 3.74129 8.97894 3.35695 9.29534L2.64903 9.87813C2.59743 9.92061 2.5841 9.99416 2.61752 10.052L3.53171 11.6355C3.56513 11.6933 3.63549 11.7186 3.69808 11.6951L4.5558 11.3738C5.02314 11.1987 5.51094 11.289 5.88363 11.514C5.92764 11.5406 5.97219 11.5664 6.01724 11.5913C6.39744 11.8018 6.71879 12.1787 6.80073 12.6703L6.95123 13.5733C6.96221 13.6392 7.01925 13.6875 7.08609 13.6875H8.91447C8.9813 13.6875 9.03834 13.6392 9.04933 13.5733L9.19982 12.6703C9.28176 12.1787 9.60311 11.8018 9.98331 11.5913C10.0284 11.5664 10.0729 11.5406 10.1169 11.514C10.4896 11.289 10.9774 11.1987 11.4448 11.3738L12.3025 11.6951C12.3651 11.7186 12.4354 11.6933 12.4688 11.6355L13.383 10.052C13.4165 9.99415 13.4031 9.9206 13.3515 9.87812L12.6436 9.29533C12.2593 8.97893 12.0931 8.5126 12.1011 8.07769C12.1016 8.05186 12.1018 8.02597 12.1018 8C12.1018 7.97404 12.1016 7.94814 12.1011 7.9223C12.0931 7.48739 12.2593 7.02106 12.6436 6.70466L13.3515 6.12187C13.4031 6.07939 13.4165 6.00584 13.383 5.94796L12.4688 4.36453C12.4354 4.30665 12.3651 4.28141 12.3025 4.30486L11.4448 4.62619C10.9774 4.80127 10.4896 4.71101 10.1169 4.48597C10.0729 4.45939 10.0284 4.43362 9.98331 4.40868C9.60311 4.19823 9.28176 3.82134 9.19982 3.3297L9.04933 2.42674C9.03834 2.36082 8.9813 2.3125 8.91447 2.3125H7.08609ZM8.00011 6.54161C7.1947 6.54161 6.54178 7.19453 6.54178 7.99994C6.54178 8.80536 7.1947 9.45828 8.00011 9.45828C8.80553 9.45828 9.45845 8.80536 9.45845 7.99994C9.45845 7.19453 8.80553 6.54161 8.00011 6.54161ZM5.22928 7.99994C5.22928 6.46966 6.46983 5.22911 8.00011 5.22911C9.5304 5.22911 10.7709 6.46966 10.7709 7.99994C10.7709 9.53023 9.5304 10.7708 8.00011 10.7708C6.46983 10.7708 5.22928 9.53023 5.22928 7.99994Z" fill="black"/>
</svg>

<svg xmlns="http://www.w3.org/2000/svg" width="16" height="16" fill="none" viewBox="0 0 16 16">
    <path fill="#000" fill-rule="evenodd" d="M5.657 2.211A1.45 1.45 0 0 1 7.087 1h1.827a1.45 1.45 0 0 1 1.43 1.211l.15.903c.006.036.037.098.125.146q.09.05.176.102c.086.052.155.048.19.035l.857-.321a1.45 1.45 0 0 1 1.763.632l.915 1.584a1.45 1.45 0 0 1-.334 1.843l-.708.583c-.028.023-.066.08-.065.18v.204c-.001.1.037.157.065.18l.708.583c.547.45.688 1.23.334 1.843l-.915 1.584a1.45 1.45 0 0 1-1.763.632l-.858-.321c-.034-.013-.103-.017-.189.035q-.087.053-.176.102c-.088.048-.119.11-.124.146l-.151.903A1.45 1.45 0 0 1 8.914 15H7.086a1.45 1.45 0 0 1-1.43-1.211l-.15-.903c-.006-.036-.037-.098-.124-.146l-.177-.102c-.085-.052-.155-.048-.189-.035l-.857.321a1.45 1.45 0 0 1-1.764-.632l-.914-1.584a1.45 1.45 0 0 1 .334-1.843l.708-.583c.028-.023.066-.08.064-.18v-.204c.002-.1-.036-.157-.064-.18l-.708-.583a1.45 1.45 0 0 1-.334-1.843l.914-1.584a1.45 1.45 0 0 1 1.764-.632l.857.321c.034.013.104.017.19-.035q.086-.053.176-.102c.087-.048.118-.11.124-.146zm1.43.102a.14.14 0 0 0-.136.114l-.15.903a1.53 1.53 0 0 1-.784 1.079q-.068.037-.133.077c-.373.225-.86.315-1.328.14l-.858-.321a.14.14 0 0 0-.166.06l-.914 1.583a.14.14 0 0 0 .031.174l.708.583c.384.316.55.782.542 1.217v.156c.008.435-.158.9-.542 1.217l-.708.583a.14.14 0 0 0-.031.174l.914 1.584a.14.14 0 0 0 .166.06l.858-.322a1.53 1.53 0 0 1 1.328.14q.066.04.133.077c.38.21.702.588.784 1.08l.15.902a.14.14 0 0 0 .135.114h1.828a.14.14 0 0 0 .135-.114l.15-.903a1.54 1.54 0 0 1 .784-1.079q.068-.037.134-.077c.373-.225.86-.315 1.328-.14l.857.321a.14.14 0 0 0 .167-.06l.914-1.583a.14.14 0 0 0-.031-.174l-.708-.583a1.53 1.53 0 0 1-.543-1.217v-.156a1.53 1.53 0 0 1 .543-1.217l.707-.583a.14.14 0 0 0 .032-.174l-.914-1.583a.14.14 0 0 0-.166-.06l-.858.321a1.53 1.53 0 0 1-1.328-.14l-.134-.077a1.53 1.53 0 0 1-.783-1.08l-.15-.902a.14.14 0 0 0-.136-.115zM8 6.542a1.458 1.458 0 1 0 0 2.916 1.458 1.458 0 0 0 0-2.916M5.23 8a2.77 2.77 0 1 1 5.541 0 2.77 2.77 0 0 1-5.542 0" clip-rule="evenodd"/>
</svg>
